vsc/verified-filled.svg

<svg viewBox="0 0 16 16" xmlns="http://www.w3.org/2000/svg" fill="currentColor" height="1em" width="1em">
  <path d="M8.38 14.72H7.67L6 13H3.53L3 12.5V10.08L1.31 8.36004V7.65004L3 5.93004V3.50004L3.53 3.00004H6L7.67 1.29004H8.38L10.1 3.00004H12.53L13.03 3.49004V5.93004L14.74 7.65004V8.36004L13 10.08V12.5L12.5 13H10.1L8.38 14.72ZM6.73004 10.4799H7.44004L11.21 6.71L10.5 6L7.09004 9.41991L5.71 8.03984L5 8.74984L6.73004 10.4799Z"/>
</svg>

<svg viewBox="0 0 16 16" xmlns="http://www.w3.org/2000/svg" fill="currentColor" height="1em" width="1em">
  <path d="M8.38 14.72h-.71L6 13H3.53L3 12.5v-2.42L1.31 8.36v-.71L3 5.93V3.5l.53-.5H6l1.67-1.71h.71L10.1 3h2.43l.5.49v2.44l1.71 1.72v.71L13 10.08v2.42l-.5.5h-2.4l-1.72 1.72Zm-1.65-4.24h.71l3.77-3.77L10.5 6 7.09 9.42 5.71 8.04 5 8.75l1.73 1.73Z"/>
</svg>
